assets/icons/setting/light_reverse.svg

<svg width="26" height="25" viewBox="0 0 26 25" fill="none" xmlns="http://www.w3.org/2000/svg">
<g clip-path="url(#clip0_2656_798)">
<path d="M8.68909 8.13425L7.38 6.82648L6.35455 7.85662L7.65636 9.16438L8.68909 8.13425ZM6.68182 12.2694H4.5V13.7306H6.68182V12.2694ZM13.2273 5H11.7727V7.15525H13.2273V5ZM18.6455 7.85662L17.62 6.82648L16.3182 8.13425L17.3436 9.16438L18.6455 7.85662ZM16.3109 17.8658L17.6127 19.1808L18.6382 18.1507L17.3291 16.8429L16.3109 17.8658ZM18.3182 12.2694V13.7306H20.5V12.2694H18.3182ZM12.5 8.61644C10.0927 8.61644 8.13636 10.5817 8.13636 13C8.13636 15.4183 10.0927 17.3836 12.5 17.3836C14.9073 17.3836 16.8636 15.4183 16.8636 13C16.8636 10.5817 14.9073 8.61644 12.5 8.61644ZM11.7727 21H13.2273V18.8447H11.7727V21ZM6.35455 18.1434L7.38 19.1735L8.68182 17.8584L7.65636 16.8283L6.35455 18.1434Z" fill="#212121"/>
</g>
<defs>
<clipPath id="clip0_2656_798">
<rect width="25" height="25" fill="white" transform="translate(0.5)"/>
</clipPath>
</defs>
</svg>

<?xml version="1.0" encoding="utf-8"?>
<!-- Generator: Adobe Illustrator 28.0.0, SVG Export Plug-In . SVG Version: 6.00 Build 0)  -->
<svg version="1.1" id="Layer_1" xmlns="http://www.w3.org/2000/svg" xmlns:xlink="http://www.w3.org/1999/xlink" x="0px" y="0px"
	 viewBox="0 0 26 25" style="enable-background:new 0 0 26 25;" xml:space="preserve">
<style type="text/css">
	.st0{fill:#212121;}
</style>
<g>
	<path class="st0" d="M8.7,8.1L7.4,6.8l-1,1l1.3,1.3L8.7,8.1z M6.7,12.3H4.5v1.5h2.2V12.3z M13.2,5h-1.5v2.2h1.5V5z M18.6,7.9l-1-1
		l-1.3,1.3l1,1L18.6,7.9z M16.3,17.9l1.3,1.3l1-1l-1.3-1.3L16.3,17.9z M18.3,12.3v1.5h2.2v-1.5H18.3z M12.5,8.6
		c-2.4,0-4.4,2-4.4,4.4s2,4.4,4.4,4.4s4.4-2,4.4-4.4S14.9,8.6,12.5,8.6z M11.8,21h1.5v-2.2h-1.5V21z M6.4,18.1l1,1l1.3-1.3l-1-1
		L6.4,18.1z"/>
	<path class="st0" d="M8.7,8.1L7.4,6.8l-1,1l1.3,1.3L8.7,8.1z M6.7,12.3H4.5v1.5h2.2V12.3z M13.2,5h-1.5v2.2h1.5V5z M18.6,7.9l-1-1
		l-1.3,1.3l1,1L18.6,7.9z M16.3,17.9l1.3,1.3l1-1l-1.3-1.3L16.3,17.9z M18.3,12.3v1.5h2.2v-1.5H18.3z M12.5,8.6
		c-2.4,0-4.4,2-4.4,4.4s2,4.4,4.4,4.4s4.4-2,4.4-4.4S14.9,8.6,12.5,8.6z M11.8,21h1.5v-2.2h-1.5V21z M6.4,18.1l1,1l1.3-1.3l-1-1
		L6.4,18.1z"/>
</g>
</svg>
